svg/aws-ec2-hpc6a.svg

<?xml version="1.0" encoding="UTF-8"?>
<svg xmlns="http://www.w3.org/2000/svg" xmlns:xlink="http://www.w3.org/1999/xlink" width="32" height="32" viewBox="0 0 32 32">
<path fill-rule="evenodd" fill="rgb(83.137255%, 35.686275%, 2.745098%)" fill-opacity="1" d="M 6 26 L 26 26 L 26 6 L 6 6 Z M 27.332031 8.667969 L 27.332031 11.332031 L 30.667969 11.332031 L 30.667969 12.667969 L 27.332031 12.667969 L 27.332031 15.332031 L 30.667969 15.332031 L 30.667969 16.667969 L 27.332031 16.667969 L 27.332031 19.332031 L 30.667969 19.332031 L 30.667969 20.667969 L 27.332031 20.667969 L 27.332031 23.332031 L 30.667969 23.332031 L 30.667969 24.667969 L 27.332031 24.667969 L 27.332031 26.667969 C 27.332031 27.035156 27.035156 27.332031 26.667969 27.332031 L 24.667969 27.332031 L 24.667969 30.667969 L 23.332031 30.667969 L 23.332031 27.332031 L 20.667969 27.332031 L 20.667969 30.667969 L 19.332031 30.667969 L 19.332031 27.332031 L 16.667969 27.332031 L 16.667969 30.667969 L 15.332031 30.667969 L 15.332031 27.332031 L 12.667969 27.332031 L 12.667969 30.667969 L 11.332031 30.667969 L 11.332031 27.332031 L 8.667969 27.332031 L 8.667969 30.667969 L 7.332031 30.667969 L 7.332031 27.332031 L 5.332031 27.332031 C 4.964844 27.332031 4.667969 27.035156 4.667969 26.667969 L 4.667969 24.667969 L 1.332031 24.667969 L 1.332031 23.332031 L 4.667969 23.332031 L 4.667969 20.667969 L 1.332031 20.667969 L 1.332031 19.332031 L 4.667969 19.332031 L 4.667969 16.667969 L 1.332031 16.667969 L 1.332031 15.332031 L 4.667969 15.332031 L 4.667969 12.667969 L 1.332031 12.667969 L 1.332031 11.332031 L 4.667969 11.332031 L 4.667969 8.667969 L 1.332031 8.667969 L 1.332031 7.332031 L 4.667969 7.332031 L 4.667969 5.332031 C 4.667969 4.964844 4.964844 4.667969 5.332031 4.667969 L 7.332031 4.667969 L 7.332031 1.332031 L 8.667969 1.332031 L 8.667969 4.667969 L 11.332031 4.667969 L 11.332031 1.332031 L 12.667969 1.332031 L 12.667969 4.667969 L 15.332031 4.667969 L 15.332031 1.332031 L 16.667969 1.332031 L 16.667969 4.667969 L 19.332031 4.667969 L 19.332031 1.332031 L 20.667969 1.332031 L 20.667969 4.667969 L 23.332031 4.667969 L 23.332031 1.332031 L 24.667969 1.332031 L 24.667969 4.667969 L 26.667969 4.667969 C 27.035156 4.667969 27.332031 4.964844 27.332031 5.332031 L 27.332031 7.332031 L 30.667969 7.332031 L 30.667969 8.667969 Z M 24.183594 17.066406 C 23.984375 17.019531 23.78125 16.996094 23.574219 16.992188 C 23.125 16.992188 22.898438 17.171875 22.898438 17.53125 C 22.898438 17.6875 22.941406 17.808594 23.027344 17.894531 C 23.125 17.988281 23.253906 18.035156 23.386719 18.027344 C 23.523438 18.023438 23.65625 17.996094 23.78125 17.941406 C 23.921875 17.886719 24.054688 17.808594 24.183594 17.707031 Z M 24.183594 16.597656 L 24.183594 16.207031 C 24.183594 15.980469 24.136719 15.820312 24.039062 15.734375 C 23.941406 15.644531 23.769531 15.597656 23.523438 15.597656 C 23.179688 15.597656 22.78125 15.671875 22.332031 15.820312 L 22.332031 15.265625 C 22.5 15.179688 22.703125 15.113281 22.945312 15.066406 C 23.1875 15.015625 23.429688 14.992188 23.675781 14.992188 C 24.121094 14.992188 24.445312 15.082031 24.65625 15.257812 C 24.867188 15.4375 24.972656 15.714844 24.972656 16.09375 L 24.972656 18.484375 L 24.285156 18.484375 L 24.226562 18.160156 C 24.074219 18.292969 23.898438 18.398438 23.707031 18.472656 C 23.527344 18.546875 23.335938 18.585938 23.144531 18.585938 C 22.835938 18.585938 22.582031 18.492188 22.386719 18.304688 C 22.195312 18.121094 22.097656 17.878906 22.097656 17.578125 C 22.097656 17.25 22.21875 16.988281 22.457031 16.792969 C 22.691406 16.597656 23.011719 16.5 23.410156 16.5 C 23.648438 16.5 23.90625 16.53125 24.183594 16.597656 M 19.183594 16.53125 C 19.214844 17.480469 19.523438 17.953125 20.109375 17.953125 C 20.347656 17.953125 20.535156 17.878906 20.671875 17.734375 C 20.804688 17.585938 20.871094 17.382812 20.871094 17.121094 C 20.871094 16.851562 20.800781 16.648438 20.664062 16.507812 C 20.523438 16.371094 20.324219 16.300781 20.058594 16.300781 C 19.769531 16.300781 19.480469 16.378906 19.183594 16.53125 M 18.800781 18.019531 C 18.519531 17.640625 18.378906 17.082031 18.378906 16.347656 C 18.378906 15.527344 18.546875 14.894531 18.882812 14.4375 C 19.21875 13.984375 19.691406 13.757812 20.296875 13.757812 C 20.488281 13.757812 20.683594 13.78125 20.875 13.824219 C 21.070312 13.867188 21.234375 13.921875 21.371094 13.992188 L 21.371094 14.574219 C 21.0625 14.457031 20.738281 14.394531 20.410156 14.394531 C 20.007812 14.394531 19.710938 14.527344 19.515625 14.792969 C 19.3125 15.058594 19.203125 15.46875 19.183594 16.027344 C 19.515625 15.804688 19.90625 15.683594 20.308594 15.6875 C 20.71875 15.6875 21.050781 15.8125 21.300781 16.0625 C 21.554688 16.3125 21.679688 16.648438 21.679688 17.066406 C 21.679688 17.359375 21.613281 17.621094 21.480469 17.847656 C 21.351562 18.078125 21.160156 18.257812 20.914062 18.390625 C 20.644531 18.527344 20.347656 18.59375 20.050781 18.585938 C 19.5 18.585938 19.085938 18.398438 18.800781 18.019531 M 17.027344 18.558594 C 17.351562 18.566406 17.671875 18.496094 17.964844 18.351562 L 17.964844 17.800781 C 17.710938 17.882812 17.445312 17.925781 17.179688 17.933594 C 16.847656 17.933594 16.601562 17.84375 16.441406 17.664062 C 16.285156 17.484375 16.207031 17.210938 16.207031 16.839844 L 16.207031 16.753906 C 16.207031 16.375 16.285156 16.097656 16.441406 15.914062 C 16.601562 15.734375 16.847656 15.644531 17.179688 15.644531 C 17.386719 15.644531 17.636719 15.6875 17.9375 15.773438 L 17.9375 15.21875 C 17.660156 15.082031 17.355469 15.015625 17.050781 15.019531 C 16.53125 15.019531 16.128906 15.175781 15.839844 15.492188 C 15.550781 15.808594 15.40625 16.25 15.40625 16.820312 C 15.402344 17.375 15.542969 17.804688 15.824219 18.105469 C 16.101562 18.40625 16.503906 18.558594 17.027344 18.558594 M 12.492188 17.679688 C 12.738281 17.851562 13.003906 17.9375 13.285156 17.9375 C 13.570312 17.9375 13.78125 17.839844 13.917969 17.648438 C 14.058594 17.457031 14.125 17.160156 14.125 16.765625 C 14.125 16.375 14.058594 16.085938 13.921875 15.894531 C 13.785156 15.707031 13.578125 15.613281 13.292969 15.613281 C 13 15.613281 12.734375 15.699219 12.492188 15.867188 Z M 12.492188 19.859375 L 11.707031 19.859375 L 11.707031 15.09375 L 12.359375 15.09375 L 12.433594 15.433594 C 12.730469 15.148438 13.125 14.992188 13.539062 14.992188 C 13.960938 14.992188 14.296875 15.148438 14.546875 15.464844 C 14.800781 15.777344 14.925781 16.203125 14.925781 16.738281 C 14.925781 17.09375 14.867188 17.410156 14.753906 17.683594 C 14.648438 17.9375 14.476562 18.160156 14.253906 18.324219 C 14.027344 18.480469 13.757812 18.5625 13.484375 18.558594 C 13.296875 18.558594 13.117188 18.523438 12.945312 18.460938 C 12.777344 18.398438 12.625 18.308594 12.492188 18.191406 Z M 7.878906 18.484375 L 7.066406 18.484375 L 7.066406 13.867188 L 7.878906 13.867188 L 7.878906 15.804688 L 10 15.804688 L 10 13.867188 L 10.8125 13.867188 L 10.8125 18.484375 L 10 18.484375 L 10 16.460938 L 7.878906 16.460938 Z M 7.878906 18.484375 "/>
</svg>

<svg role="img" viewBox="0 0 32 32" height="32" width="32" xmlns="http://www.w3.org/2000/svg"><path d="M6 26h20V6H6ZM27.332 8.668v2.664h3.336v1.336h-3.336v2.664h3.336v1.336h-3.336v2.664h3.336v1.336h-3.336v2.664h3.336v1.336h-3.336v2a.664.664 0 0 1-.664.664h-2v3.336h-1.336v-3.336h-2.664v3.336h-1.336v-3.336h-2.664v3.336h-1.336v-3.336h-2.664v3.336h-1.336v-3.336H8.668v3.336H7.332v-3.336h-2a.664.664 0 0 1-.664-.664v-2H1.332v-1.336h3.336v-2.664H1.332v-1.336h3.336v-2.664H1.332v-1.336h3.336v-2.664H1.332v-1.336h3.336V8.668H1.332V7.332h3.336v-2c0-.367.297-.664.664-.664h2V1.332h1.336v3.336h2.664V1.332h1.336v3.336h2.664V1.332h1.336v3.336h2.664V1.332h1.336v3.336h2.664V1.332h1.336v3.336h2c.367 0 .664.297.664.664v2h3.336v1.336Zm-3.148 8.398a2.89 2.89 0 0 0-.61-.074c-.449 0-.676.18-.676.54 0 .155.043.277.13.363.097.093.226.14.359.132.136-.004.27-.03.394-.086.14-.054.274-.132.403-.234Zm0-.468v-.391c0-.227-.047-.387-.145-.473-.098-.09-.27-.136-.516-.136-.343 0-.742.074-1.191.222v-.554a2.31 2.31 0 0 1 .613-.2c.242-.05.485-.074.73-.074.446 0 .77.09.981.266.211.18.317.457.317.836v2.39h-.688l-.058-.324a1.755 1.755 0 0 1-.52.313 1.48 1.48 0 0 1-.562.113c-.31 0-.563-.094-.758-.281-.192-.184-.29-.426-.29-.727 0-.328.122-.59.36-.785.234-.195.555-.293.953-.293.238 0 .496.031.774.098m-5-.067c.03.95.34 1.422.925 1.422.239 0 .426-.074.563-.219.133-.148.2-.351.2-.613 0-.27-.071-.473-.208-.613-.14-.137-.34-.207-.605-.207a1.9 1.9 0 0 0-.875.23M18.8 18.02c-.281-.38-.422-.938-.422-1.672 0-.82.168-1.453.504-1.91.336-.454.808-.68 1.414-.68.191 0 .387.023.578.066.195.043.36.098.496.168v.582a2.704 2.704 0 0 0-.96-.18c-.403 0-.7.133-.895.399-.203.266-.313.676-.332 1.234a1.985 1.985 0 0 1 1.125-.34c.41 0 .742.126.992.376.254.25.379.585.379 1.003 0 .293-.067.555-.2.782-.128.23-.32.41-.566.543a1.81 1.81 0 0 1-.863.195c-.551 0-.965-.188-1.25-.566m-1.774.539c.325.007.645-.063.938-.207V17.8c-.254.082-.52.125-.785.133-.332 0-.578-.09-.739-.27-.156-.18-.234-.453-.234-.824v-.086c0-.379.078-.656.234-.84.16-.18.407-.27.739-.27.207 0 .457.043.758.13v-.555a1.95 1.95 0 0 0-.887-.2c-.52 0-.922.157-1.211.473-.29.317-.434.758-.434 1.328-.004.555.137.985.418 1.285.278.301.68.454 1.203.454m-4.535-.88c.246.173.512.259.793.259.285 0 .496-.098.633-.29.14-.191.207-.488.207-.882 0-.391-.066-.68-.203-.871-.137-.188-.344-.282-.629-.282-.293 0-.559.086-.8.254Zm0 2.18h-.785v-4.765h.652l.075.34a1.59 1.59 0 0 1 1.105-.442c.422 0 .758.156 1.008.473.254.312.379.738.379 1.273 0 .356-.059.672-.172.946a1.519 1.519 0 0 1-.5.64 1.324 1.324 0 0 1-.77.235c-.187 0-.367-.036-.539-.098a1.438 1.438 0 0 1-.453-.27ZM7.88 18.484h-.813v-4.617h.813v1.938H10v-1.938h.813v4.617H10v-2.023H7.879Zm0 0" fill="rgb(83.137255%, 35.686275%, 2.745098%)" fill-rule="evenodd"/></svg>
